public/illustration/x.svg

<svg width="32" height="32" viewBox="0 0 32 32" fill="none" xmlns="http://www.w3.org/2000/svg">
<g clip-path="url(#clip0_744_5243)">
<path d="M32 5.0071C30.8222 5.58534 29.5586 5.9775 28.2307 6.15257C29.5864 5.25303 30.6243 3.82623 31.1162 2.13133C29.8443 2.96436 28.4406 3.56924 26.945 3.89715C25.7472 2.48142 24.0434 1.59961 22.1538 1.59961C18.5285 1.59961 15.589 4.85647 15.589 8.87105C15.589 9.44042 15.647 9.99654 15.759 10.5283C10.304 10.2247 5.46694 7.32903 2.22955 2.9289C1.66363 4.00126 1.3417 5.25078 1.3417 6.58458C1.3417 9.10812 2.50149 11.3347 4.26118 12.6374C3.18536 12.5976 2.17355 12.2697 1.28774 11.7246V11.8155C1.28774 15.3382 3.55133 18.2782 6.55274 18.9473C6.00283 19.1113 5.42296 19.2022 4.82307 19.2022C4.39917 19.2022 3.98923 19.1556 3.5873 19.067C4.42312 21.9583 6.8467 24.0609 9.71819 24.1185C7.47259 26.0682 4.6411 27.227 1.5657 27.227C1.03582 27.227 0.513883 27.1914 0 27.1273C2.90547 29.1943 6.35483 30.3996 10.0621 30.3996C22.1379 30.3996 28.7387 19.3174 28.7387 9.70634L28.7166 8.76474C30.0064 7.74551 31.1221 6.46495 32 5.0071Z" fill="#FB0021"/>
</g>
<defs>
<clipPath id="clip0_744_5243">
<rect width="32" height="28.8" fill="white" transform="translate(0 1.59961)"/>
</clipPath>
</defs>
</svg>

<svg xmlns="http://www.w3.org/2000/svg" width="32" height="32" fill="none" viewBox="0 0 32 32"><g clip-path="url(#a)"><path fill="#fb0021" d="M32 5.007c-1.178.578-2.441.97-3.77 1.146 1.356-.9 2.394-2.327 2.886-4.022a12.5 12.5 0 0 1-4.171 1.766C25.747 2.481 24.043 1.6 22.154 1.6c-3.625 0-6.565 3.256-6.565 7.271 0 .57.058 1.126.17 1.657-5.455-.303-10.292-3.199-13.53-7.6a7.8 7.8 0 0 0-.887 3.657c0 2.523 1.16 4.75 2.92 6.052a6.1 6.1 0 0 1-2.974-.912v.09c0 3.523 2.263 6.463 5.265 7.132-.55.164-1.13.255-1.73.255q-.635 0-1.236-.135c.836 2.891 3.26 4.994 6.131 5.052-2.245 1.95-5.077 3.108-8.152 3.108q-.795-.002-1.566-.1C2.905 29.194 6.355 30.4 10.062 30.4c12.076 0 18.677-11.083 18.677-20.694l-.022-.941A14 14 0 0 0 32 5.007"/></g><defs><clipPath id="a"><path fill="#fff" d="M0 1.6h32v28.8H0z"/></clipPath></defs></svg>
